X: 26149
T: McIntyre's Fancy
R: jig
M: 6/8
K: Adorian
|:"Am"cde "F"AGE|"Em7"GAB "Am"A3|"Am"e/g/ag "G6"edc|"F"eAB "Em7"AGE|
"Am"cde "F"dcA|"Em7"~G3 "G6"Gcd|"Am"ega "G6"g/f/ed|"F"cAG "Am"A3:|
|:"Am"a3 "G6"ged|"Em"edg "Am"edc|"F"~A3 "Am7"GAc|"G6"dec "Em7"deg|
"Am"aeg "G6"dec|"F"~A3 "Em"GEG|"Am9"cde "G6"g/f/ed|"F"cAG "Am"A3:|

